docs/images/Tutorial1.svg

<?xml version="1.0" encoding="UTF-8" standalone="no"?>
<svg
   xmlns:xhtml="http://www.w3.org/1999/xhtml"
   xmlns:dc="http://purl.org/dc/elements/1.1/"
   xmlns:cc="http://creativecommons.org/ns#"
   xmlns:rdf="http://www.w3.org/1999/02/22-rdf-syntax-ns#"
   xmlns:svg="http://www.w3.org/2000/svg"
   xmlns="http://www.w3.org/2000/svg"
   xmlns:sodipodi="http://sodipodi.sourceforge.net/DTD/sodipodi-0.dtd"
   xmlns:inkscape="http://www.inkscape.org/namespaces/inkscape"
   style="background-color:#fff"
   width="651"
   height="161"
   version="1.1"
   viewBox="-0.5 -0.5 651 161"
   id="svg66"
   sodipodi:docname="Tutorial1.svg"
   inkscape:version="0.92.5 (2060ec1f9f, 2020-04-08)">
  <metadata
     id="metadata72">
    <rdf:RDF>
      <cc:Work
         rdf:about="">
        <dc:format>image/svg+xml</dc:format>
        <dc:type
           rdf:resource="http://purl.org/dc/dcmitype/StillImage" />
      </cc:Work>
    </rdf:RDF>
  </metadata>
  <defs
     id="defs70" />
  <sodipodi:namedview
     pagecolor="#ffffff"
     bordercolor="#666666"
     borderopacity="1"
     objecttolerance="10"
     gridtolerance="10"
     guidetolerance="10"
     inkscape:pageopacity="0"
     inkscape:pageshadow="2"
     inkscape:window-width="774"
     inkscape:window-height="480"
     id="namedview68"
     showgrid="false"
     inkscape:zoom="0.53302611"
     inkscape:cx="325.5"
     inkscape:cy="80.5"
     inkscape:window-x="72"
     inkscape:window-y="27"
     inkscape:window-maximized="0"
     inkscape:current-layer="svg66" />
  <g
     id="g58">
    <path
       stroke-miterlimit="10"
       d="m 350,50 -65.17,55.86"
       pointer-events="stroke"
       id="path2"
       inkscape:connector-curvature="0"
       style="fill:none;stroke:#000000;stroke-miterlimit:10" />
    <path
       stroke-miterlimit="10"
       d="m 280.85,109.27 3.04,-7.21 0.94,3.8 3.61,1.51 z"
       pointer-events="all"
       id="path4"
       inkscape:connector-curvature="0"
       style="fill:#000000;stroke:#000000;stroke-miterlimit:10" />
    <path
       stroke-miterlimit="10"
       d="m 350,50 60.32,55.68"
       pointer-events="stroke"
       id="path6"
       inkscape:connector-curvature="0"
       style="fill:none;stroke:#000000;stroke-miterlimit:10" />
    <path
       stroke-miterlimit="10"
       d="m 414.18,109.24 -7.52,-2.17 3.66,-1.39 1.09,-3.76 z"
       pointer-events="all"
       id="path8"
       inkscape:connector-curvature="0"
       style="fill:#000000;stroke:#000000;stroke-miterlimit:10" />
    <path
       stroke-miterlimit="10"
       d="m 350,50 193.9,58.17"
       pointer-events="stroke"
       id="path10"
       inkscape:connector-curvature="0"
       style="fill:none;stroke:#000000;stroke-miterlimit:10" />
    <path
       stroke-miterlimit="10"
       d="m 548.93,109.68 -7.71,1.34 2.68,-2.85 -0.67,-3.86 z"
       pointer-events="all"
       id="path12"
       inkscape:connector-curvature="0"
       style="fill:#000000;stroke:#000000;stroke-miterlimit:10" />
    <path
       stroke-miterlimit="10"
       d="M 350,50 91.21,108.59"
       pointer-events="stroke"
       id="path14"
       inkscape:connector-curvature="0"
       style="fill:none;stroke:#000000;stroke-miterlimit:10" />
    <path
       stroke-miterlimit="10"
       d="m 86.09,109.75 6.05,-4.96 -0.93,3.8 2.48,3.03 z"
       pointer-events="all"
       id="path16"
       inkscape:connector-curvature="0"
       style="fill:#000000;stroke:#000000;stroke-miterlimit:10" />
    <rect
       width="120"
       height="40"
       x="290"
       y="10"
       pointer-events="all"
       id="rect18"
       style="fill:#ffffff;stroke:#000000" />
    <g
       transform="translate(-0.5,-0.5)"
       id="g24">
      <switch
         id="switch22">
        <foreignObject
           style="overflow:visible;text-align:left"
           width="100%"
           height="100%"
           pointer-events="none"
           requiredFeatures="http://www.w3.org/TR/SVG11/feature#Extensibility">
          <xhtml:div
             style="display:flex;align-items:unsafe center;justify-content:unsafe center;width:118px;height:1px;padding-top:30px;margin-left:291px">
            <xhtml:div
               style="box-sizing:border-box;font-size:0;text-align:center"
               data-drawio-colors="color: rgb(0, 0, 0);">
              <xhtml:div
                 style="display:inline-block;font-size:18px;font-family:Helvetica;color:#000;line-height:1.2;pointer-events:all;white-space:normal;overflow-wrap:normal">Sequence</xhtml:div>
            </xhtml:div>
          </xhtml:div>
        </foreignObject>
        <text
           x="350"
           y="35"
           font-size="18"
           id="text20"
           style="font-size:18px;font-family:Helvetica;text-anchor:middle;fill:#000000">Sequence</text>
      </switch>
    </g>
    <rect
       width="120"
       height="40"
       x="190"
       y="110"
       pointer-events="all"
       id="rect26"
       style="fill:#ffffff;stroke:#000000" />
    <g
       transform="translate(-0.5,-0.5)"
       id="g32">
      <switch
         id="switch30">
        <foreignObject
           style="overflow:visible;text-align:left"
           width="100%"
           height="100%"
           pointer-events="none"
           requiredFeatures="http://www.w3.org/TR/SVG11/feature#Extensibility">
          <xhtml:div
             style="display:flex;align-items:unsafe center;justify-content:unsafe center;width:118px;height:1px;padding-top:130px;margin-left:191px">
            <xhtml:div
               style="box-sizing:border-box;font-size:0;text-align:center"
               data-drawio-colors="color: rgb(0, 0, 0);">
              <xhtml:div
                 style="display:inline-block;font-size:18px;font-family:Helvetica;color:#000;line-height:1.2;pointer-events:all;white-space:normal;overflow-wrap:normal">OpenGripper</xhtml:div>
            </xhtml:div>
          </xhtml:div>
        </foreignObject>
        <text
           x="250"
           y="135"
           font-size="18"
           id="text28"
           style="font-size:18px;font-family:Helvetica;text-anchor:middle;fill:#000000">OpenGripper</text>
      </switch>
    </g>
    <rect
       width="150"
       height="40"
       x="340"
       y="110"
       pointer-events="all"
       id="rect34"
       style="fill:#ffffff;stroke:#000000" />
    <g
       transform="translate(-0.5,-0.5)"
       id="g40">
      <switch
         id="switch38">
        <foreignObject
           style="overflow:visible;text-align:left"
           width="100%"
           height="100%"
           pointer-events="none"
           requiredFeatures="http://www.w3.org/TR/SVG11/feature#Extensibility">
          <xhtml:div
             style="display:flex;align-items:unsafe center;justify-content:unsafe center;width:148px;height:1px;padding-top:130px;margin-left:341px">
            <xhtml:div
               style="box-sizing:border-box;font-size:0;text-align:center"
               data-drawio-colors="color: rgb(0, 0, 0);">
              <xhtml:div
                 style="display:inline-block;font-size:18px;font-family:Helvetica;color:#000;line-height:1.2;pointer-events:all;white-space:normal;overflow-wrap:normal">ApproachObject</xhtml:div>
            </xhtml:div>
          </xhtml:div>
        </foreignObject>
        <text
           x="415"
           y="135"
           font-size="18"
           id="text36"
           style="font-size:18px;font-family:Helvetica;text-anchor:middle;fill:#000000">ApproachObject</text>
      </switch>
    </g>
    <rect
       width="120"
       height="40"
       x="520"
       y="110"
       pointer-events="all"
       id="rect42"
       style="fill:#ffffff;stroke:#000000" />
    <g
       transform="translate(-0.5,-0.5)"
       id="g48">
      <switch
         id="switch46">
        <foreignObject
           style="overflow:visible;text-align:left"
           width="100%"
           height="100%"
           pointer-events="none"
           requiredFeatures="http://www.w3.org/TR/SVG11/feature#Extensibility">
          <xhtml:div
             style="display:flex;align-items:unsafe center;justify-content:unsafe center;width:118px;height:1px;padding-top:130px;margin-left:521px">
            <xhtml:div
               style="box-sizing:border-box;font-size:0;text-align:center"
               data-drawio-colors="color: rgb(0, 0, 0);">
              <xhtml:div
                 style="display:inline-block;font-size:18px;font-family:Helvetica;color:#000;line-height:1.2;pointer-events:all;white-space:normal;overflow-wrap:normal">CloseGripper</xhtml:div>
            </xhtml:div>
          </xhtml:div>
        </foreignObject>
        <text
           x="580"
           y="135"
           font-size="18"
           id="text44"
           style="font-size:18px;font-family:Helvetica;text-anchor:middle;fill:#000000">CloseGripper</text>
      </switch>
    </g>
    <rect
       width="150"
       height="40"
       x="10"
       y="110"
       pointer-events="all"
       rx="14.4"
       ry="14.4"
       id="rect50"
       style="fill:#ffffff;stroke:#000000" />
    <g
       transform="translate(-0.5,-0.5)"
       id="g56">
      <switch
         id="switch54">
        <foreignObject
           style="overflow:visible;text-align:left"
           width="100%"
           height="100%"
           pointer-events="none"
           requiredFeatures="http://www.w3.org/TR/SVG11/feature#Extensibility">
          <xhtml:div
             style="display:flex;align-items:unsafe center;justify-content:unsafe center;width:148px;height:1px;padding-top:130px;margin-left:11px">
            <xhtml:div
               style="box-sizing:border-box;font-size:0;text-align:center"
               data-drawio-colors="color: rgb(0, 0, 0);">
              <xhtml:div
                 style="display:inline-block;font-size:18px;font-family:Helvetica;color:#000;line-height:1.2;pointer-events:all;white-space:normal;overflow-wrap:normal">CheckBattery</xhtml:div>
            </xhtml:div>
          </xhtml:div>
        </foreignObject>
        <text
           x="85"
           y="135"
           font-size="18"
           id="text52"
           style="font-size:18px;font-family:Helvetica;text-anchor:middle;fill:#000000">CheckBattery</text>
      </switch>
    </g>
  </g>
</svg>

<svg xmlns="http://www.w3.org/2000/svg" xmlns:xlink="http://www.w3.org/1999/xlink" style="background-color:#fff" width="651" height="161" version="1.1" viewBox="-0.5 -0.5 651 161"><g><path fill="none" stroke="#000" stroke-miterlimit="10" d="M 350 50 L 284.83 105.86" pointer-events="stroke"/><path fill="#000" stroke="#000" stroke-miterlimit="10" d="M 280.85 109.27 L 283.89 102.06 L 284.83 105.86 L 288.44 107.37 Z" pointer-events="all"/><path fill="none" stroke="#000" stroke-miterlimit="10" d="M 350 50 L 410.32 105.68" pointer-events="stroke"/><path fill="#000" stroke="#000" stroke-miterlimit="10" d="M 414.18 109.24 L 406.66 107.07 L 410.32 105.68 L 411.41 101.92 Z" pointer-events="all"/><path fill="none" stroke="#000" stroke-miterlimit="10" d="M 350 50 L 543.9 108.17" pointer-events="stroke"/><path fill="#000" stroke="#000" stroke-miterlimit="10" d="M 548.93 109.68 L 541.22 111.02 L 543.9 108.17 L 543.23 104.31 Z" pointer-events="all"/><path fill="none" stroke="#000" stroke-miterlimit="10" d="M 350 50 L 91.21 108.59" pointer-events="stroke"/><path fill="#000" stroke="#000" stroke-miterlimit="10" d="M 86.09 109.75 L 92.14 104.79 L 91.21 108.59 L 93.69 111.62 Z" pointer-events="all"/><rect width="120" height="40" x="290" y="10" fill="#FFF" stroke="#000" pointer-events="all"/><g transform="translate(-0.5 -0.5)"><switch><foreignObject style="overflow:visible;text-align:left" width="100%" height="100%" pointer-events="none" requiredFeatures="http://www.w3.org/TR/SVG11/feature#Extensibility"><div xmlns="http://www.w3.org/1999/xhtml" style="display:flex;align-items:unsafe center;justify-content:unsafe center;width:118px;height:1px;padding-top:30px;margin-left:291px"><div style="box-sizing:border-box;font-size:0;text-align:center" data-drawio-colors="color: rgb(0, 0, 0);"><div style="display:inline-block;font-size:18px;font-family:Helvetica;color:#000;line-height:1.2;pointer-events:all;white-space:normal;overflow-wrap:normal">Sequence</div></div></div></foreignObject><text x="350" y="35" fill="#000" font-family="Helvetica" font-size="18" text-anchor="middle">Sequence</text></switch></g><rect width="120" height="40" x="190" y="110" fill="#FFF" stroke="#000" pointer-events="all"/><g transform="translate(-0.5 -0.5)"><switch><foreignObject style="overflow:visible;text-align:left" width="100%" height="100%" pointer-events="none" requiredFeatures="http://www.w3.org/TR/SVG11/feature#Extensibility"><div xmlns="http://www.w3.org/1999/xhtml" style="display:flex;align-items:unsafe center;justify-content:unsafe center;width:118px;height:1px;padding-top:130px;margin-left:191px"><div style="box-sizing:border-box;font-size:0;text-align:center" data-drawio-colors="color: rgb(0, 0, 0);"><div style="display:inline-block;font-size:18px;font-family:Helvetica;color:#000;line-height:1.2;pointer-events:all;white-space:normal;overflow-wrap:normal">OpenGripper</div></div></div></foreignObject><text x="250" y="135" fill="#000" font-family="Helvetica" font-size="18" text-anchor="middle">OpenGripper</text></switch></g><rect width="150" height="40" x="340" y="110" fill="#FFF" stroke="#000" pointer-events="all"/><g transform="translate(-0.5 -0.5)"><switch><foreignObject style="overflow:visible;text-align:left" width="100%" height="100%" pointer-events="none" requiredFeatures="http://www.w3.org/TR/SVG11/feature#Extensibility"><div xmlns="http://www.w3.org/1999/xhtml" style="display:flex;align-items:unsafe center;justify-content:unsafe center;width:148px;height:1px;padding-top:130px;margin-left:341px"><div style="box-sizing:border-box;font-size:0;text-align:center" data-drawio-colors="color: rgb(0, 0, 0);"><div style="display:inline-block;font-size:18px;font-family:Helvetica;color:#000;line-height:1.2;pointer-events:all;white-space:normal;overflow-wrap:normal">ApproachObject</div></div></div></foreignObject><text x="415" y="135" fill="#000" font-family="Helvetica" font-size="18" text-anchor="middle">ApproachObject</text></switch></g><rect width="120" height="40" x="520" y="110" fill="#FFF" stroke="#000" pointer-events="all"/><g transform="translate(-0.5 -0.5)"><switch><foreignObject style="overflow:visible;text-align:left" width="100%" height="100%" pointer-events="none" requiredFeatures="http://www.w3.org/TR/SVG11/feature#Extensibility"><div xmlns="http://www.w3.org/1999/xhtml" style="display:flex;align-items:unsafe center;justify-content:unsafe center;width:118px;height:1px;padding-top:130px;margin-left:521px"><div style="box-sizing:border-box;font-size:0;text-align:center" data-drawio-colors="color: rgb(0, 0, 0);"><div style="display:inline-block;font-size:18px;font-family:Helvetica;color:#000;line-height:1.2;pointer-events:all;white-space:normal;overflow-wrap:normal">CloseGripper</div></div></div></foreignObject><text x="580" y="135" fill="#000" font-family="Helvetica" font-size="18" text-anchor="middle">CloseGripper</text></switch></g><rect width="150" height="40" x="10" y="110" fill="#FFF" stroke="#000" pointer-events="all" rx="14.4" ry="14.4"/><g transform="translate(-0.5 -0.5)"><switch><foreignObject style="overflow:visible;text-align:left" width="100%" height="100%" pointer-events="none" requiredFeatures="http://www.w3.org/TR/SVG11/feature#Extensibility"><div xmlns="http://www.w3.org/1999/xhtml" style="display:flex;align-items:unsafe center;justify-content:unsafe center;width:148px;height:1px;padding-top:130px;margin-left:11px"><div style="box-sizing:border-box;font-size:0;text-align:center" data-drawio-colors="color: rgb(0, 0, 0);"><div style="display:inline-block;font-size:18px;font-family:Helvetica;color:#000;line-height:1.2;pointer-events:all;white-space:normal;overflow-wrap:normal">CheckBattery</div></div></div></foreignObject><text x="85" y="135" fill="#000" font-family="Helvetica" font-size="18" text-anchor="middle">CheckBattery</text></switch></g></g><switch><a target="_blank" transform="translate(0,-5)" xlink:href="https://www.diagrams.net/doc/faq/svg-export-text-problems"><text x="50%" y="100%" font-size="10" text-anchor="middle">Text is not SVG - cannot display</text></a></switch></svg>
